Newaita-dark/actions/22/tool-node-editor.svg

<svg height="22" viewBox="0 0 22 22" width="22" xmlns="http://www.w3.org/2000/svg"><g fill="#e0e0e0"><path d="m5.003906 2.902344c-1.261718 0-2.273437 1.011718-2.273437 2.273437 0 1.257813 1.011719 2.273438 2.273437 2.273438 1.257813 0 2.273438-1.015625 2.273438-2.273438 0-1.261719-1.015625-2.273437-2.273438-2.273437zm0 .90625c.753906 0 1.363282.609375 1.363282 1.367187 0 .753907-.609376 1.363281-1.363282 1.363281-.757812 0-1.367187-.609374-1.367187-1.363281 0-.757812.609375-1.367187 1.367187-1.367187zm0 0"/><path d="m4.546875 6.765625h.910156v8.414063h-.910156zm0 0"/><path d="m15.234375 4.71875v.910156h-8.640625v-.910156zm0 0"/><path d="m15.007812 2.902344c-.25 0-.453124.199218-.453124.453125v3.636719c0 .253906.203124.457031.453124.457031h3.640626c.25 0 .453124-.203125.453124-.457031v-3.636719c0-.253907-.203124-.453125-.453124-.453125zm.683594.90625h2.273438c.125 0 .226562.101562.226562.230468v2.273438c0 .125-.101562.226562-.226562.226562h-2.273438c-.125 0-.226562-.101562-.226562-.226562v-2.273438c0-.128906.101562-.230468.226562-.230468zm0 0"/><path d="m3.183594 14.726562c-.253906 0-.453125.203126-.453125.453126v3.640624c0 .25.199219.453126.453125.453126h3.636718c.253907 0 .457032-.203126.457032-.453126v-3.640624c0-.25-.203125-.453126-.457032-.453126zm.683594.910157h2.273437c.125 0 .226563.101562.226563.226562v2.273438c0 .125-.101563.226562-.226563.226562h-2.273437c-.128907 0-.230469-.101562-.230469-.226562v-2.273438c0-.125.101562-.226562.230469-.226562zm0 0"/><path d="m7.277344 7.113281c-.292969.269531-.371094.699219-.199219 1.054688l4.824219 9.96875c.167968.347656.535156.550781.917968.507812.378907-.042969.691407-.324219.777344-.699219l.839844-3.628906 3.628906-.835937c.375-.085938.652344-.398438.695313-.78125.042969-.382813-.160157-.75-.503907-.917969l-9.96875-4.820312c-.335937-.164063-.738281-.105469-1.011718.152343zm2.566406 2.609375 5.3125 2.570313-1.675781.386719c-.339844.078124-.601563.34375-.679688.679687l-.386719 1.675781zm0 0"/></g></svg>

<svg xmlns="http://www.w3.org/2000/svg" xmlns:xlink="http://www.w3.org/1999/xlink" width="22px" height="22px" viewBox="0 0 22 22" version="1.1">
<g id="surface1">
     <defs>
  <style id="current-color-scheme" type="text/css">
   .ColorScheme-Text { color:#eeeeee; } .ColorScheme-Highlight { color:#424242; }
  </style>
 </defs>
<path style="fill:currentColor" class="ColorScheme-Text" d="M 5.003906 2.902344 C 3.742188 2.902344 2.730469 3.914062 2.730469 5.175781 C 2.730469 6.433594 3.742188 7.449219 5.003906 7.449219 C 6.261719 7.449219 7.277344 6.433594 7.277344 5.175781 C 7.277344 3.914062 6.261719 2.902344 5.003906 2.902344 Z M 5.003906 3.808594 C 5.757812 3.808594 6.367188 4.417969 6.367188 5.175781 C 6.367188 5.929688 5.757812 6.539062 5.003906 6.539062 C 4.246094 6.539062 3.636719 5.929688 3.636719 5.175781 C 3.636719 4.417969 4.246094 3.808594 5.003906 3.808594 Z M 5.003906 3.808594 "/>
     <defs>
  <style id="current-color-scheme" type="text/css">
   .ColorScheme-Text { color:#eeeeee; } .ColorScheme-Highlight { color:#424242; }
  </style>
 </defs>
<path style="fill:currentColor" class="ColorScheme-Text" d="M 4.546875 6.765625 L 5.457031 6.765625 L 5.457031 15.179688 L 4.546875 15.179688 Z M 4.546875 6.765625 "/>
     <defs>
  <style id="current-color-scheme" type="text/css">
   .ColorScheme-Text { color:#eeeeee; } .ColorScheme-Highlight { color:#424242; }
  </style>
 </defs>
<path style="fill:currentColor" class="ColorScheme-Text" d="M 15.234375 4.71875 L 15.234375 5.628906 L 6.59375 5.628906 L 6.59375 4.71875 Z M 15.234375 4.71875 "/>
     <defs>
  <style id="current-color-scheme" type="text/css">
   .ColorScheme-Text { color:#eeeeee; } .ColorScheme-Highlight { color:#424242; }
  </style>
 </defs>
<path style="fill:currentColor" class="ColorScheme-Text" d="M 15.007812 2.902344 C 14.757812 2.902344 14.554688 3.101562 14.554688 3.355469 L 14.554688 6.992188 C 14.554688 7.246094 14.757812 7.449219 15.007812 7.449219 L 18.648438 7.449219 C 18.898438 7.449219 19.101562 7.246094 19.101562 6.992188 L 19.101562 3.355469 C 19.101562 3.101562 18.898438 2.902344 18.648438 2.902344 Z M 15.691406 3.808594 L 17.964844 3.808594 C 18.089844 3.808594 18.191406 3.910156 18.191406 4.039062 L 18.191406 6.3125 C 18.191406 6.4375 18.089844 6.539062 17.964844 6.539062 L 15.691406 6.539062 C 15.566406 6.539062 15.464844 6.4375 15.464844 6.3125 L 15.464844 4.039062 C 15.464844 3.910156 15.566406 3.808594 15.691406 3.808594 Z M 15.691406 3.808594 "/>
     <defs>
  <style id="current-color-scheme" type="text/css">
   .ColorScheme-Text { color:#eeeeee; } .ColorScheme-Highlight { color:#424242; }
  </style>
 </defs>
<path style="fill:currentColor" class="ColorScheme-Text" d="M 3.183594 14.726562 C 2.929688 14.726562 2.730469 14.929688 2.730469 15.179688 L 2.730469 18.820312 C 2.730469 19.070312 2.929688 19.273438 3.183594 19.273438 L 6.820312 19.273438 C 7.074219 19.273438 7.277344 19.070312 7.277344 18.820312 L 7.277344 15.179688 C 7.277344 14.929688 7.074219 14.726562 6.820312 14.726562 Z M 3.867188 15.636719 L 6.140625 15.636719 C 6.265625 15.636719 6.367188 15.738281 6.367188 15.863281 L 6.367188 18.136719 C 6.367188 18.261719 6.265625 18.363281 6.140625 18.363281 L 3.867188 18.363281 C 3.738281 18.363281 3.636719 18.261719 3.636719 18.136719 L 3.636719 15.863281 C 3.636719 15.738281 3.738281 15.636719 3.867188 15.636719 Z M 3.867188 15.636719 "/>
     <defs>
  <style id="current-color-scheme" type="text/css">
   .ColorScheme-Text { color:#eeeeee; } .ColorScheme-Highlight { color:#424242; }
  </style>
 </defs>
<path style="fill:currentColor" class="ColorScheme-Text" d="M 7.277344 7.113281 C 6.984375 7.382812 6.90625 7.8125 7.078125 8.167969 L 11.902344 18.136719 C 12.070312 18.484375 12.4375 18.6875 12.820312 18.644531 C 13.199219 18.601562 13.511719 18.320312 13.597656 17.945312 L 14.4375 14.316406 L 18.066406 13.480469 C 18.441406 13.394531 18.71875 13.082031 18.761719 12.699219 C 18.804688 12.316406 18.601562 11.949219 18.257812 11.78125 L 8.289062 6.960938 C 7.953125 6.796875 7.550781 6.855469 7.277344 7.113281 Z M 9.84375 9.722656 L 15.15625 12.292969 L 13.480469 12.679688 C 13.140625 12.757812 12.878906 13.023438 12.800781 13.359375 L 12.414062 15.035156 Z M 9.84375 9.722656 "/>
</g>
</svg>
